src/icons/main-user-groups.svg

<svg enable-background="new 0 0 14 11" viewBox="0 0 14 11" xmlns="http://www.w3.org/2000/svg"><path d="m11.2 9.9c0-.2-.1-.4-.2-.6-.3-.7-.9-1.1-2.2-1.6-.1 0-.5-.2-.5-.2-.1-.2-.3-.2-.4-.3 0-.1 0-.2 0-.3v-.1c-.1 0-.1-.1-.2-.2.3-.1.4-.4.5-.7 0 0 0 0 0-.1.3-.2.5-.5.6-.8s.2-.6.1-1c0-.3-.1-.6-.3-.8 0-.4-.1-.9-.1-1.3 0 0 0-.1 0-.2.2 0 .4-.1.6-.1.4 0 .9.1 1.2.4.3.2.6.6.7 1 0 .1 0 .2.1.3.1.3.1.8.1 1.1.1 0 .2.2.2.4s-.1.4-.1.4c0 .2-.1.4-.3.4 0 .1 0 .2-.1.2-.1.4-.4.7-.6.9v.1c0 .3-.1.5.7.8.6.5 1.8.9 2 1.4s.1.9.1.9zm-.9-.3c.3.7.2 1.1.2 1.1h-10.5s-.1-.4.2-1.1 1.8-1.2 2.7-1.6c1-.4.9-.7.9-1.1v-.1c-.3-.3-.6-.7-.8-1.2 0-.2 0-.3-.1-.4-.2 0-.4-.3-.4-.5 0-.1-.2-.3-.1-.6 0-.3.2-.5.3-.6 0-.4 0-1 .1-1.4 0-.1 0-.2.1-.3.1-.6.4-1 .8-1.3s1-.5 1.6-.5 1.1.2 1.5.5.7.7.8 1.3c0 .1.1.2.1.3.1.4.1 1 .1 1.4v.1c.1.1.3.2.3.6 0 .2-.1.4-.1.5 0 .2-.2.5-.4.5 0 .1-.1.2-.1.3-.2.5-.5 1-.8 1.3v.1c0 .4-.1.6.9 1.1s2.4.9 2.7 1.6z" fill="#4d5969"/></svg>

<?xml version="1.0" encoding="utf-8"?>
<!-- Generator: Adobe Illustrator 20.1.0, SVG Export Plug-In . SVG Version: 6.00 Build 0)  -->
<svg version="1.1" id="Layer_1" xmlns="http://www.w3.org/2000/svg" xmlns:xlink="http://www.w3.org/1999/xlink" x="0px" y="0px"
	 viewBox="0 0 14 11" style="enable-background:new 0 0 14 11;" xml:space="preserve">
<style type="text/css">
	.st0{fill:#4D5969;}
</style>
<title>HDL/Icon/Standard/user-groups</title>
<desc>Created with Sketch.</desc>
<g id="Colors">
	<g id="Main-Icons" transform="translate(-1122.000000, -737.000000)">
		<g id="User-Groups" transform="translate(1100.000000, 723.000000)">
			<g id="HDL_x2F_Icon_x2F_Standard_x2F_user-groups" transform="translate(22.000000, 14.000000)">
				<path id="Combined-Shape_18_" class="st0" d="M11.2,9.9c0-0.2-0.1-0.4-0.2-0.6c-0.3-0.7-0.9-1.1-2.2-1.6c-0.1,0-0.5-0.2-0.5-0.2
					C8.2,7.3,8,7.3,7.9,7.2c0-0.1,0-0.2,0-0.3c0,0,0-0.1,0-0.1c-0.1,0-0.1-0.1-0.2-0.2C8,6.5,8.1,6.2,8.2,5.9c0,0,0,0,0-0.1
					C8.5,5.6,8.7,5.3,8.8,5C8.9,4.7,9,4.4,8.9,4c0-0.3-0.1-0.6-0.3-0.8c0-0.4-0.1-0.9-0.1-1.3c0,0,0-0.1,0-0.2
					c0.2,0,0.4-0.1,0.6-0.1c0.4,0,0.9,0.1,1.2,0.4c0.3,0.2,0.6,0.6,0.7,1c0,0.1,0,0.2,0.1,0.3c0.1,0.3,0.1,0.8,0.1,1.1c0,0,0,0,0,0
					c0.1,0,0.2,0.2,0.2,0.4c0,0.2-0.1,0.4-0.1,0.4c0,0.2-0.1,0.4-0.3,0.4c0,0.1,0,0.2-0.1,0.2c0,0,0,0,0,0c-0.1,0.4-0.4,0.7-0.6,0.9
					c0,0,0,0.1,0,0.1c0,0.3-0.1,0.5,0.7,0.8C11.6,8.1,12.8,8.5,13,9c0.2,0.5,0.1,0.9,0.1,0.9L11.2,9.9L11.2,9.9z M10.3,9.6
					c0.3,0.7,0.2,1.1,0.2,1.1H0c0,0-0.1-0.4,0.2-1.1C0.5,8.9,2,8.4,2.9,8c1-0.4,0.9-0.7,0.9-1.1c0,0,0-0.1,0-0.1
					C3.5,6.5,3.2,6.1,3,5.6v0c0,0,0,0,0,0C3,5.4,3,5.3,2.9,5.2c-0.2,0-0.4-0.3-0.4-0.5c0-0.1-0.2-0.3-0.1-0.6c0-0.3,0.2-0.5,0.3-0.6
					c0,0,0,0,0,0c0-0.4,0-1,0.1-1.4c0-0.1,0-0.2,0.1-0.3C3,1.2,3.3,0.8,3.7,0.5C4.1,0.2,4.7,0,5.3,0s1.1,0.2,1.5,0.5
					c0.4,0.3,0.7,0.7,0.8,1.3c0,0.1,0.1,0.2,0.1,0.3c0.1,0.4,0.1,1,0.1,1.4c0,0,0,0,0,0.1c0.1,0.1,0.3,0.2,0.3,0.6
					C8.1,4.4,8,4.6,8,4.7c0,0.2-0.2,0.5-0.4,0.5c0,0.1-0.1,0.2-0.1,0.3c0,0,0,0,0,0C7.3,6,7,6.5,6.7,6.8c0,0,0,0.1,0,0.1
					c0,0.4-0.1,0.6,0.9,1.1S10,8.9,10.3,9.6z"/>
			</g>
		</g>
	</g>
</g>
</svg>
